material/.icons/material/file-powerpoint-box-outline.svg

<svg xmlns="http://www.w3.org/2000/svg" viewBox="0 0 24 24"><path d="M5 3c-1.11 0-2 .89-2 2v14c0 1.11.89 2 2 2h14c1.11 0 2-.89 2-2V5c0-1.11-.89-2-2-2H5m0 2h14v14H5V5m10.1 2.88c-.65-.59-1.27-.88-2.8-.88H8v10h1.8v-3.6h2.5c1.5 0 2.16-.28 2.8-.82.64-.55.9-1.33.9-2.35 0-.97-.25-1.73-.9-2.35m-1.5 3.62c-.32.31-.7.5-1.38.5H9.8V8.4h2.3c.66 0 1.17.25 1.5.6.33.35.5.72.5 1.24 0 .56-.18.95-.5 1.26z"/></svg>

<?xml version="1.0" encoding="UTF-8"?><!DOCTYPE svg PUBLIC "-//W3C//DTD SVG 1.1//EN" "http://www.w3.org/Graphics/SVG/1.1/DTD/svg11.dtd"><svg xmlns="http://www.w3.org/2000/svg" xmlns:xlink="http://www.w3.org/1999/xlink" version="1.1" id="mdi-file-powerpoint-box-outline" width="24" height="24" viewBox="0 0 24 24"><path d="M5 3C3.89 3 3 3.89 3 5V19C3 20.11 3.89 21 5 21H19C20.11 21 21 20.11 21 19V5C21 3.89 20.11 3 19 3H5M5 5H19V19H5V5M15.1 7.88C14.45 7.29 13.83 7 12.3 7H8V17H9.8V13.4H12.3C13.8 13.4 14.46 13.12 15.1 12.58C15.74 12.03 16 11.25 16 10.23C16 9.26 15.75 8.5 15.1 7.88M13.6 11.5C13.28 11.81 12.9 12 12.22 12H9.8V8.4H12.1C12.76 8.4 13.27 8.65 13.6 9C13.93 9.35 14.1 9.72 14.1 10.24C14.1 10.8 13.92 11.19 13.6 11.5Z" /></svg>
